X: 37116
T: Simon's Wart
R: reel
M: 4/4
K: Gmajor
D2|:"G"DEDB, DEGA|"G"BABG Bdge|"G"dBAG "C"EFGA|"Am"BABG "C"AGEG|
"G"DEDB, DEGA|"G"BABG Bdge|"G"dBAG "C"EFGA|1 "D"BdAB "G"G2 GE:|2 "D"BdAB "G"G2 Bd||
|:"G"g2 gd "Am"egae|"C"gage "G"dBAG|"C"EFGA "G"BABG|
[1"G"BdgB "D"A2 Bd|"Em"edef "C"gage|"G"dBAG "C"EFGE|"G"DEGA Bdeg|"D"dB (3ABA "G"G2 Bd:|
[2"G"BdgB "D"A2 GE|"G"DEDB, DEGA|"G"BABG Bdge|"G"dBAG "C"EFGA|"D"BdAB "G"G2||

